X: 21252
T: THE CHAMPION HORNPIPE
C: By James Hill
R: hornpipe
B: K\"ohler's Violin Repository, v.2, 1885 p.125 #2
F: http://www.archive.org/details/klersviolinrepos02rugg
Z: 2012 John Chambers <jc:trillian.mit.edu>
M: C|
L: 1/8
K: E
u(B>d) |\
e2d>c (B>A)G>F | E2G>B (e>g)b>g | aBfa gBeg | (f>B)a>g f2B>d |
e2d>c (B>A)G>F | E>GB>e (g>e)b>g | aBdf gBeg | fBdf e2 :||: u(e>f) |
(g>b)f>g B2c>d | e2d>c (B>A)G>F | (E>G)B>e (g>b)e>g | (f>B)a>g f2e>f |
(g>b)e>g (B>e)G>B | (E>G)B>e (g>b)e>g | aBfa gBeg | fBdf e2 :|

%%sep 2 1 500

